src/components/00-materials/images-raw/Bills Pound.svg

<svg width="96" height="96" viewBox="0 0 96 96" fill="none" xmlns="http://www.w3.org/2000/svg">
<path d="M75 35H11C10.4477 35 10 35.4477 10 36V70C10 70.5523 10.4477 71 11 71H75C75.5523 71 76 70.5523 76 70V36C76 35.4477 75.5523 35 75 35Z" stroke="#00008F" stroke-width="2" stroke-linecap="round" stroke-linejoin="round"/>
<path d="M15 35V31C15 30.7348 15.1054 30.4804 15.2929 30.2929C15.4804 30.1054 15.7348 30 16 30H80C80.2652 30 80.5196 30.1054 80.7071 30.2929C80.8946 30.4804 81 30.7348 81 31V65C81 65.2652 80.8946 65.5196 80.7071 65.7071C80.5196 65.8946 80.2652 66 80 66H76" stroke="#00008F" stroke-width="2" stroke-linecap="round" stroke-linejoin="round"/>
<path d="M20 30V26C20 25.7348 20.1054 25.4804 20.2929 25.2929C20.4804 25.1054 20.7348 25 21 25H85C85.2652 25 85.5196 25.1054 85.7071 25.2929C85.8946 25.4804 86 25.7348 86 26V60C86 60.2652 85.8946 60.5196 85.7071 60.7071C85.5196 60.8946 85.2652 61 85 61H81" stroke="#00008F" stroke-width="2" stroke-linecap="round" stroke-linejoin="round"/>
<path d="M25 53H21M67 40H19C19 41.0609 18.5786 42.0783 17.8284 42.8284C17.0783 43.5786 16.0609 44 15 44V62C16.0609 62 17.0783 62.4214 17.8284 63.1716C18.5786 63.9217 19 64.9391 19 66H67C67 64.9391 67.4214 63.9217 68.1716 63.1716C68.9217 62.4214 69.9391 62 71 62V44C69.9391 44 68.9217 43.5786 68.1716 42.8284C67.4214 42.0783 67 41.0609 67 40ZM65 53H61H65Z" stroke="#00008F" stroke-width="2" stroke-linecap="round" stroke-linejoin="round"/>
<path d="M43 66C50.1797 66 56 60.1797 56 53C56 45.8203 50.1797 40 43 40C35.8203 40 30 45.8203 30 53C30 60.1797 35.8203 66 43 66Z" stroke="#00008F" stroke-width="2" stroke-linecap="round" stroke-linejoin="round"/>
<path d="M47 59H38L38.27 58.6C39.3976 56.9054 39.9995 54.9155 40 52.88V49C40 48.2044 40.3161 47.4413 40.8787 46.8787C41.4413 46.3161 42.2044 46 43 46C43.7956 46 44.5587 46.3161 45.1213 46.8787C45.6839 47.4413 46 48.2044 46 49M38 53H44" stroke="#00008F" stroke-width="2" stroke-linecap="round" stroke-linejoin="round"/>
</svg>

<svg width="96" height="96" viewBox="0 0 96 96" fill="none" xmlns="http://www.w3.org/2000/svg"><path d="M75 35H11a1 1 0 00-1 1v34a1 1 0 001 1h64a1 1 0 001-1V36a1 1 0 00-1-1z" stroke="#00008F" stroke-width="2" stroke-linecap="round" stroke-linejoin="round"/><path d="M15 35v-4a1 1 0 011-1h64a1 1 0 011 1v34a1 1 0 01-1 1h-4" stroke="#00008F" stroke-width="2" stroke-linecap="round" stroke-linejoin="round"/><path d="M20 30v-4a1 1 0 011-1h64a1 1 0 011 1v34a1 1 0 01-1 1h-4" stroke="#00008F" stroke-width="2" stroke-linecap="round" stroke-linejoin="round"/><path d="M25 53h-4m46-13H19a4 4 0 01-4 4v18a4 4 0 014 4h48a4 4 0 014-4V44a4 4 0 01-4-4zm-2 13h-4 4z" stroke="#00008F" stroke-width="2" stroke-linecap="round" stroke-linejoin="round"/><path d="M43 66c7.18 0 13-5.82 13-13s-5.82-13-13-13-13 5.82-13 13 5.82 13 13 13z" stroke="#00008F" stroke-width="2" stroke-linecap="round" stroke-linejoin="round"/><path d="M47 59h-9l.27-.4A10.33 10.33 0 0040 52.88V49a3 3 0 016 0m-8 4h6" stroke="#00008F" stroke-width="2" stroke-linecap="round" stroke-linejoin="round"/></svg>
